X:1
T:Title
%%score { ( 1 3 ) | 2 }
L:1/8
M:4/4
K:Ab
V:1 treble nm="Grand Piano"
V:3 treble 
V:2 bass 
V:1
 z4 z2 z[Q:1/4=100] [CE] | [CE] [CF]2 [CE] [G,DE] [G,DF]2 [G,DE] | E[CA][A,EA]B c3 d | %3
 c B2 =A c B2 G | [DB][CA][FA][DF] [CE]3 [CE] | [CE] [CF]2 [CE] [G,DE] [G,DF]2 [G,DE] | %6
 A,2 z2 z2 [A=d]2 |[M:5/4] [Ae]3 cAE [EGc]3 [DGB] |[M:3/4] [CA]6 |[M:1/4] [E_Gc]>[EGc] | %10
[M:4/4] [DFd] [A,DF]2 [DA] [Fd]3 [Fd] | [Ec] [CE]2 [CA] [Ec]3 [Ec] | B2 B>B c B2 G | %13
 [=DB][DA][B,DG][A,DF] [G,E]3 [G,_DE] | [A,CE] [A,CF]2 [A,CE] [G,DE] [G,DF]2 [G,DE] | %15
 .E2 z2 z2 [A=d]2 |[M:9/8] [Ae]2 c AE[EGc]- [EGc]2 [DGB] |[M:7/8] [CA]-[CA]-[CA]- [CA]3 z |] %18
V:2
 z4 z2 z [A,,A,] | [A,,A,] [A,,A,]2 [A,,A,] B,, B,,2 B,, | C,A,,C,[E,G,E][K:treble] [A,E]3 [A,F] | %3
 [E,A,E] [E,G,E]2 [E,_G,E] [E,=G,D] [E,G,D]2 [E,D] | [A,,E,]2 [A,,A,][A,,A,] [A,,A,]3 [A,,A,] | %5
 [A,,A,] [A,,A,]2 [A,,A,] B,, B,,2 B,, | C,A,,C,[E,G,E] [A,E]2 .[F,A,]2 | %7
[M:5/4] [E,C]3 CA,E, E,3 E, |[M:3/4] A,,6 |[M:1/4] A,>A, |[M:4/4] D, D,2 [D,F,] [D,A,]3 [D,A,] | %11
 [A,,A,] [A,,A,]2 [A,,A,] [A,,A,]3 [C,A,] | [E,G,E]2 [E,G,E]>[E,G,E] [E,A,E] [E,G,E]2 [E,B,E] | %13
 [B,,B,][B,,F,]B,,B,, E,D,C,B,, | A,, A,,2 A,, B,, B,,2 B,, | C,A,,C,[E,G,E] [A,E]2 .[F,A,]2 | %16
[M:9/8] [E,C]2 C A,E,E,- E,2 E, |[M:7/8] A,,-A,,-A,,- A,,3 z |] %18
V:3
 x8 | x8 | A,2 z2 z4 | x8 | x8 | x8 | E[CA][A,EA]B c2 z B, |[M:5/4] x10 |[M:3/4] x6 |[M:1/4] x2 | %10
[M:4/4] x8 | x8 | x8 | x8 | x8 | A,-[A,CA][A,EA]B c2 z B, |[M:9/8] x9 |[M:7/8] x7 |] %18

